src/gekigrade/raw_profiles/neutral-v1.pp3
[Version]
AppVersion=5.13
Version=353

[Exposure]
Auto=false
Clip=0.02
Compensation=0
Brightness=0
Contrast=0
Saturation=0
Black=0
HighlightCompr=0
HighlightComprThreshold=0
HistogramMatching=false
ClampOOG=true
CurveMode=Standard
CurveMode2=Standard
Curve=0;
Curve2=0;

[HLRecovery]
Enabled=true
Method=Coloropp

[White Balance]
Enabled=true
Setting=Camera
TemperatureBias=0
StandardObserver=TWO_DEGREES
CompatibilityVersion=2

[Sharpening]
Enabled=false

[Directional Pyramid Denoising]
Enabled=false

[Coarse Transformation]
Rotate=0
HorizontalFlip=false
VerticalFlip=false

[Common Properties for Transformations]
Method=log
Scale=1
Scale horizontally=1
Scale vertically=1
AutoFill=true

[Rotation]
Degree=0

[LensProfile]
LcMode=lfauto
LCPFile=
UseDistortion=true
UseVignette=true
UseCA=false
LFCameraMake=
LFCameraModel=
LFLens=

[Resize]
Enabled=false

[PostDemosaicSharpening]
Enabled=false

[PostResizeSharpening]
Enabled=false

[Color Management]
InputProfile=(cameraICC)
ToneCurve=false
ApplyLookTable=false
ApplyBaselineExposureOffset=true
ApplyHueSatMap=true
DCPIlluminant=0
WorkingProfile=Rec2020
WorkingTRC=none
Gamut=true
OutputProfile=RTv4_Large
aIntent=Relative
OutputProfileIntent=Relative
OutputBPC=true

[Film Simulation]
Enabled=false

[RAW]
DarkFrame=
DarkFrameAuto=false
FlatFieldFile=
FlatFieldAutoSelect=false
FlatFieldFromMetaData=false
CA=true
CAAvoidColourshift=true
CAAutoIterations=2
HotPixelFilter=false
DeadPixelFilter=false
PreExposure=1

[RAW Bayer]
Method=amaze
Border=4
ImageNum=1
CcSteps=0
PreTwoGreen=true
PDAFLinesFilter=false

[MetaData]
Mode=1
ExifKeys=Exif.Image.Make;Exif.Image.Model;Exif.Photo.LensModel;Exif.Photo.FNumber;Exif.Photo.ExposureTime;Exif.Photo.FocalLength;Exif.Photo.ISOSpeedRatings;Exif.Photo.ExposureBiasValue;Exif.Photo.Flash;Exif.Photo.DateTimeOriginal;Exif.Photo.OffsetTimeDigitized;Exif.Photo.OffsetTimeOriginal;
